<?xml version="1.0" encoding="UTF-8"?>
<map version="1.10" tiledversion="1.11.0" orientation="orthogonal" renderorder="right-up" width="30" height="16" tilewidth="12" tileheight="12" infinite="0" nextlayerid="9" nextobjectid="74">
 <properties>
  <property name="next_level" value="ledges"/>
 </properties>
 <tileset firstgid="1" source="../graphics/Walls.tsx"/>
 <tileset firstgid="121" source="../graphics/Objects.tsx"/>
 <layer id="5" name="Background" width="30" height="16">
  <data encoding="csv">
53,53,53,53,53,53,53,53,53,53,53,53,53,53,53,53,53,53,53,53,53,53,53,53,53,53,53,53,53,53,
53,53,53,53,53,53,53,53,53,53,53,53,53,53,53,53,53,53,53,53,53,53,53,53,53,53,53,53,53,53,
53,53,53,53,53,53,53,53,53,53,53,53,53,53,53,53,53,53,53,53,53,53,53,53,53,53,53,53,53,53,
53,53,53,53,53,53,53,53,53,53,53,53,53,53,53,53,53,53,53,53,53,53,53,53,53,53,53,53,53,53,
53,53,53,53,53,53,53,53,53,53,53,53,53,53,53,53,53,53,53,53,53,53,53,53,53,53,53,53,53,53,
53,53,53,53,53,53,53,53,53,53,53,53,53,53,53,53,53,53,53,53,53,53,53,53,53,53,53,53,53,53,
53,53,53,53,53,53,53,53,53,53,53,53,53,53,53,53,53,53,53,53,53,53,53,53,53,53,53,53,53,53,
53,53,53,53,53,53,53,53,53,53,53,53,53,53,53,53,53,53,53,53,53,53,53,53,53,53,53,53,53,53,
53,53,53,53,53,53,53,53,53,53,53,53,53,53,53,53,53,53,53,53,53,53,53,53,53,53,53,53,53,53,
53,53,53,53,53,53,53,53,53,53,53,53,53,53,53,53,53,53,53,53,53,53,53,53,53,53,53,53,53,53,
53,53,53,53,53,53,53,53,53,53,53,53,53,53,53,53,53,53,53,53,53,53,53,53,53,53,53,53,53,53,
53,53,53,53,53,53,53,53,53,53,53,53,53,53,53,53,53,53,53,53,53,53,53,53,53,53,53,53,53,53,
53,53,53,53,53,53,53,53,53,53,53,53,53,53,53,53,53,53,53,53,53,53,53,53,53,53,53,53,53,53,
53,53,53,53,53,53,53,53,53,53,53,53,53,53,53,53,53,53,53,53,53,53,53,53,53,53,53,53,53,53,
53,53,53,53,53,53,53,53,53,53,53,53,53,53,53,53,53,53,53,53,53,53,53,53,53,53,53,53,53,53,
53,53,53,53,53,53,53,53,53,53,53,53,53,53,53,53,53,53,53,53,53,53,53,53,53,53,53,53,53,53
</data>
 </layer>
 <layer id="6" name="Map" width="30" height="16">
  <data encoding="csv">
0,0,0,0,0,0,0,0,0,0,0,0,0,0,0,0,0,0,0,0,0,0,0,0,0,0,0,0,0,0,
0,0,0,0,0,0,0,0,0,0,0,0,0,0,0,0,0,0,0,0,0,0,0,0,0,0,0,0,0,0,
0,0,0,0,0,0,0,0,0,0,0,0,0,0,0,0,0,0,0,0,0,0,0,0,0,0,0,0,0,0,
0,0,0,0,0,0,0,0,0,0,0,0,0,0,0,0,0,0,0,0,0,0,0,0,0,0,0,0,0,0,
0,0,0,0,0,0,0,0,0,0,0,0,0,0,0,0,0,0,0,0,0,0,0,0,0,0,0,0,0,0,
0,0,0,0,0,0,0,0,0,0,0,0,0,0,0,0,0,0,0,0,0,0,0,0,0,0,0,0,0,0,
0,0,0,0,0,0,0,0,0,0,0,0,0,0,0,0,0,0,0,0,0,0,0,0,0,0,0,0,0,0,
0,0,0,0,0,0,0,0,0,0,0,0,0,0,0,0,0,0,0,0,0,0,0,0,0,0,0,0,0,0,
0,0,0,0,0,0,0,0,0,0,0,0,0,0,0,0,0,0,0,0,0,0,0,0,0,0,0,0,0,0,
0,0,0,0,0,0,0,0,0,0,0,0,0,0,0,0,0,0,0,0,0,0,0,0,0,0,0,0,0,0,
0,0,0,0,0,0,0,0,0,0,0,0,0,0,0,0,0,0,0,0,0,0,0,0,0,0,0,0,0,0,
0,0,0,0,0,0,0,0,0,0,0,0,0,0,0,0,0,0,0,0,0,0,0,0,0,0,0,0,0,0,
0,0,0,0,0,0,0,0,0,0,0,0,0,0,0,0,0,0,0,0,0,0,0,0,0,0,0,0,0,0,
10,10,10,10,10,10,10,10,10,10,10,10,10,10,10,10,10,10,10,10,10,10,10,10,10,10,10,10,10,10,
22,22,22,22,22,22,22,22,22,22,22,22,22,22,22,22,22,22,22,22,22,22,22,22,22,22,22,22,22,22,
22,22,22,22,22,22,22,22,22,22,22,22,22,22,22,22,22,22,22,22,22,22,22,22,22,22,22,22,22,22
</data>
 </layer>
 <objectgroup id="8" name="Objects">
  <object id="1" gid="121" x="24" y="156" width="12" height="12"/>
  <object id="5" gid="128" x="312" y="156" width="12" height="12">
   <properties>
    <property name="destination" value="chimney"/>
   </properties>
  </object>
  <object id="6" gid="137" x="156" y="96" width="12" height="12"/>
  <object id="7" gid="137" x="156" y="120" width="12" height="12"/>
  <object id="8" gid="137" x="156" y="120" width="12" height="12"/>
  <object id="9" gid="137" x="156" y="108" width="12" height="12"/>
  <object id="10" gid="137" x="156" y="132" width="12" height="12"/>
  <object id="11" gid="137" x="156" y="84" width="12" height="12"/>
  <object id="12" gid="137" x="156" y="72" width="12" height="12"/>
  <object id="13" gid="137" x="156" y="60" width="12" height="12"/>
  <object id="14" gid="137" x="156" y="48" width="12" height="12"/>
  <object id="15" gid="137" x="156" y="48" width="12" height="12"/>
  <object id="16" gid="137" x="156" y="36" width="12" height="12"/>
  <object id="17" gid="137" x="204" y="36" width="12" height="12"/>
  <object id="18" gid="137" x="204" y="60" width="12" height="12"/>
  <object id="19" gid="137" x="204" y="48" width="12" height="12"/>
  <object id="20" gid="137" x="204" y="60" width="12" height="12"/>
  <object id="21" gid="137" x="204" y="84" width="12" height="12"/>
  <object id="22" gid="137" x="204" y="84" width="12" height="12"/>
  <object id="23" gid="137" x="204" y="84" width="12" height="12"/>
  <object id="24" gid="137" x="204" y="72" width="12" height="12"/>
  <object id="25" gid="137" x="204" y="96" width="12" height="12"/>
  <object id="26" gid="137" x="204" y="108" width="12" height="12"/>
  <object id="27" gid="137" x="204" y="120" width="12" height="12"/>
  <object id="28" gid="137" x="204" y="132" width="12" height="12"/>
  <object id="29" gid="122" x="228" y="24" width="12" height="12"/>
  <object id="30" gid="122" x="240" y="24" width="12" height="12"/>
  <object id="31" gid="122" x="264" y="48" width="12" height="12"/>
  <object id="32" gid="122" x="264" y="48" width="12" height="12"/>
  <object id="33" gid="122" x="252" y="48" width="12" height="12"/>
  <object id="34" gid="122" x="252" y="60" width="12" height="12"/>
  <object id="35" gid="122" x="264" y="60" width="12" height="12"/>
  <object id="36" gid="122" x="264" y="96" width="12" height="12"/>
  <object id="37" gid="122" x="252" y="96" width="12" height="12"/>
  <object id="38" gid="122" x="252" y="108" width="12" height="12"/>
  <object id="39" gid="122" x="264" y="108" width="12" height="12"/>
  <object id="40" gid="122" x="108" y="108" width="12" height="12"/>
  <object id="41" gid="122" x="108" y="96" width="12" height="12"/>
  <object id="42" gid="122" x="96" y="96" width="12" height="12"/>
  <object id="43" gid="122" x="96" y="108" width="12" height="12"/>
  <object id="45" gid="122" x="108" y="60" width="12" height="12"/>
  <object id="46" gid="122" x="96" y="60" width="12" height="12"/>
  <object id="47" gid="122" x="96" y="48" width="12" height="12"/>
  <object id="48" gid="122" x="108" y="48" width="12" height="12"/>
  <object id="49" gid="122" x="120" y="24" width="12" height="12"/>
  <object id="50" gid="122" x="120" y="24" width="12" height="12"/>
  <object id="51" gid="122" x="132" y="24" width="12" height="12"/>
  <object id="52" gid="55" x="312" y="132" width="12" height="12"/>
  <object id="53" gid="55" x="324" y="132" width="12" height="12"/>
  <object id="54" gid="55" x="300" y="132" width="12" height="12"/>
  <object id="55" gid="54" x="288" y="132" width="12" height="12"/>
  <object id="56" gid="66" x="288" y="144" width="12" height="12"/>
  <object id="57" gid="66" x="288" y="156" width="12" height="12"/>
  <object id="58" gid="66" x="288" y="168" width="12" height="12"/>
  <object id="59" gid="78" x="288" y="180" width="12" height="12"/>
  <object id="60" gid="79" x="300" y="180" width="12" height="12"/>
  <object id="61" gid="79" x="312" y="180" width="12" height="12"/>
  <object id="62" gid="79" x="324" y="180" width="12" height="12"/>
  <object id="63" gid="80" x="336" y="180" width="12" height="12"/>
  <object id="64" gid="68" x="336" y="168" width="12" height="12"/>
  <object id="65" gid="68" x="336" y="156" width="12" height="12"/>
  <object id="66" gid="68" x="336" y="144" width="12" height="12"/>
  <object id="67" gid="56" x="336" y="132" width="12" height="12"/>
  <object id="68" gid="90" x="306" y="132" width="12" height="12">
   <properties>
    <property name="toll" value="100"/>
   </properties>
  </object>
  <object id="72" gid="92" x="318" y="132" width="12" height="12"/>
 </objectgroup>
</map>
