<?xml version="1.0" encoding="UTF-8"?>
<map version="1.10" tiledversion="1.11.0" orientation="orthogonal" renderorder="right-up" width="48" height="27" tilewidth="8" tileheight="8" infinite="0" nextlayerid="3" nextobjectid="36">
 <tileset firstgid="1" source="../fonts/Spritefont_Medium.tsx"/>
 <tileset firstgid="81" source="../graphics/Sprites.tsx"/>
 <layer id="1" name="tiles" width="48" height="27">
  <data encoding="csv">
0,0,0,0,0,0,0,0,0,0,0,0,0,0,0,0,0,0,0,0,0,0,0,0,0,0,0,0,0,0,0,0,0,0,0,0,0,0,0,0,0,0,0,0,0,0,0,0,
0,0,0,0,0,0,0,0,0,0,0,0,0,0,38,38,38,0,48,25,33,0,60,25,0,56,22,11,35,0,38,38,38,0,0,0,0,0,0,0,0,0,0,0,0,0,0,0,
0,0,0,0,0,0,0,0,0,0,0,0,0,0,0,0,0,0,0,0,0,0,0,0,0,0,0,0,0,0,0,0,0,0,0,0,0,0,0,0,0,0,0,0,0,0,0,0,
0,0,47,15,30,0,35,25,31,28,0,26,11,24,14,11,0,0,0,0,0,30,25,0,30,18,15,0,0,0,33,19,30,18,19,24,0,30,19,23,15,0,22,19,23,19,30,0,
0,0,0,0,0,0,0,0,0,0,0,0,0,0,0,0,0,0,0,0,0,0,0,0,0,0,0,0,0,0,0,0,0,0,0,0,0,0,0,0,0,0,0,0,0,0,0,0,
0,0,43,25,22,22,15,13,30,0,11,29,0,23,11,24,35,0,0,0,11,29,0,35,25,31,0,13,11,24,40,0,0,0,0,0,0,0,0,0,0,0,0,0,0,0,0,0,
0,0,0,0,0,0,0,0,0,0,0,0,0,0,0,0,0,0,0,0,0,0,0,0,0,0,0,0,0,0,0,0,0,0,0,0,0,0,0,0,0,0,0,0,0,0,0,0,
0,0,45,32,15,28,35,0,29,13,28,15,15,24,0,18,11,29,0,11,30,0,22,15,11,29,30,0,3,1,0,0,0,0,0,0,0,0,0,0,0,0,0,0,0,0,0,0,
0,0,0,0,0,0,0,0,0,0,0,0,0,0,0,0,0,0,0,0,0,0,0,0,0,0,0,0,0,0,0,0,0,0,0,0,0,0,0,0,0,0,0,0,0,0,0,0,
0,0,43,25,22,22,15,13,30,0,30,18,15,23,0,11,22,22,0,30,25,0,17,15,30,0,12,25,24,31,29,37,0,0,72,0,0,72,0,0,72,0,0,72,0,0,0,0,
0,0,0,0,0,0,0,0,0,0,0,0,0,0,0,0,0,0,0,0,0,0,0,0,0,0,0,0,0,0,0,0,0,0,0,0,0,0,0,0,0,0,0,0,0,0,0,0,
0,0,46,11,19,22,68,0,11,24,14,0,12,25,24,31,29,0,19,29,0,28,15,29,15,30,0,30,25,0,0,0,11,24,14,0,30,28,35,0,11,17,11,19,24,0,0,0,
0,0,0,0,0,0,0,0,0,0,0,0,0,0,0,0,0,0,0,0,0,0,0,0,0,0,0,0,0,0,0,0,0,0,0,0,0,0,0,0,0,0,0,0,0,0,0,0,
0,0,46,11,19,22,0,33,19,30,18,0,0,0,12,25,24,31,29,68,0,30,18,15,24,0,19,30,73,29,0,47,41,53,45,0,55,62,45,58,0,0,0,0,0,0,0,0,
0,0,0,0,0,0,0,0,0,0,0,0,0,0,0,0,0,0,0,0,0,0,0,0,0,0,0,0,0,0,0,0,0,0,0,0,0,0,0,0,0,0,0,0,0,0,0,0,
0,0,0,0,0,0,0,0,0,0,0,0,0,38,38,38,0,45,34,30,28,11,0,47,25,25,14,19,15,29,0,38,38,38,0,0,0,0,0,0,0,0,0,0,0,0,0,0,
0,0,0,0,0,0,0,0,0,0,0,0,0,0,0,0,0,0,0,0,0,0,0,0,0,0,0,0,0,0,0,0,0,0,0,0,0,0,0,0,0,0,0,0,0,0,0,0,
0,0,0,0,0,49,24,29,30,11,24,30,0,12,25,24,31,29,0,0,0,0,0,0,0,0,58,15,26,22,15,24,19,29,18,0,0,0,33,19,30,18,0,0,0,0,0,0,
0,0,0,0,0,0,0,0,0,0,0,0,0,0,0,0,0,0,0,0,0,0,0,0,0,0,0,0,0,0,0,0,0,0,0,0,0,0,0,0,0,0,0,0,0,0,0,0,
0,0,0,0,0,0,0,0,0,43,25,24,29,31,23,15,0,11,22,22,0,12,25,24,31,29,0,16,25,28,0,12,19,17,0,28,15,33,11,28,14,29,0,0,0,0,0,0,
0,0,0,0,0,0,0,0,0,0,0,0,0,0,0,0,0,0,0,0,0,0,0,0,0,0,0,0,0,0,0,0,0,0,0,0,0,0,0,0,0,0,0,0,0,0,0,0,
0,0,0,49,16,0,23,11,34,0,12,25,24,31,29,0,0,68,0,17,15,30,37,0,0,0,2,1,1,1,0,26,30,29,40,0,0,0,0,0,0,0,0,0,0,0,0,0,
0,0,0,0,0,0,0,0,0,0,0,0,0,0,0,0,0,0,0,0,0,0,0,0,0,0,0,0,0,0,0,0,0,0,0,0,0,0,0,0,0,0,0,0,0,0,0,0,
0,0,0,0,0,0,0,0,0,0,0,0,0,0,0,0,0,0,0,0,0,0,0,0,0,0,42,19,17,17,15,28,0,12,25,24,31,29,0,12,11,28,37,0,0,0,0,0,
0,0,0,0,0,0,0,0,0,0,0,0,0,0,0,0,0,0,0,0,0,0,0,0,0,0,0,0,0,0,0,0,0,0,0,0,0,0,0,0,0,0,0,0,0,0,0,0,
0,0,0,0,0,0,0,0,0,0,0,0,0,0,0,0,0,0,0,0,0,0,0,0,0,0,74,2,0,23,15,30,11,12,25,24,31,29,37,0,0,0,0,0,0,0,0,0,
0,0,0,0,0,0,0,0,0,0,0,0,0,0,0,0,0,0,0,0,0,0,0,0,0,0,0,0,0,0,0,0,0,0,0,0,0,0,0,0,0,0,0,0,0,0,0,0
</data>
 </layer>
 <objectgroup id="2" name="objects">
  <object id="1" gid="101" x="134" y="34" width="12" height="12"/>
  <object id="2" gid="131" x="150" y="34" width="12" height="12"/>
  <object id="3" gid="156" x="222" y="34" width="12" height="12"/>
  <object id="4" gid="157" x="222" y="34" width="12" height="12"/>
  <object id="5" gid="145" x="142" y="50" width="12" height="12"/>
  <object id="6" gid="145" x="246" y="66" width="12" height="12"/>
  <object id="13" gid="171" x="258" y="82" width="12" height="12"/>
  <object id="14" gid="172" x="282" y="82" width="12" height="12"/>
  <object id="15" gid="173" x="306" y="82" width="12" height="12"/>
  <object id="16" gid="174" x="330" y="82" width="12" height="12"/>
  <object id="17" gid="175" x="354" y="82" width="12" height="12"/>
  <object id="18" gid="171" x="238" y="98" width="12" height="12"/>
  <object id="19" gid="171" x="94" y="114" width="12" height="12"/>
  <object id="20" gid="164" x="22" y="146" width="12" height="12"/>
  <object id="23" gid="82" x="190" y="146" width="12" height="12"/>
  <object id="24" gid="185" x="342" y="146" width="12" height="12"/>
  <object id="25" gid="145" x="286" y="146" width="12" height="12"/>
  <object id="26" gid="197" x="22" y="162" width="12" height="12"/>
  <object id="27" gid="196" x="38" y="162" width="12" height="12"/>
  <object id="28" gid="195" x="54" y="162" width="12" height="12"/>
  <object id="29" gid="175" x="125" y="178" width="12" height="12"/>
  <object id="30" gid="197" x="190" y="178" width="12" height="12"/>
  <object id="31" gid="195" x="190" y="194" width="12" height="12"/>
  <object id="32" gid="196" x="190" y="210" width="12" height="12"/>
  <object id="33" gid="180" x="350" y="194" width="12" height="12"/>
  <object id="34" gid="172" x="318" y="210" width="12" height="12"/>
  <object id="35" gid="175" x="330" y="210" width="12" height="12"/>
 </objectgroup>
</map>
