<?xml version="1.0" encoding="UTF-8"?>
<map version="1.10" tiledversion="1.11.0" orientation="orthogonal" renderorder="right-up" width="30" height="16" tilewidth="12" tileheight="12" infinite="0" nextlayerid="9" nextobjectid="48">
 <tileset firstgid="1" source="../graphics/Walls.tsx"/>
 <tileset firstgid="121" source="../graphics/Objects.tsx"/>
 <layer id="5" name="Background" width="30" height="16">
  <data encoding="csv">
53,53,53,53,53,53,53,53,53,53,53,53,53,53,53,53,53,53,53,53,53,53,53,53,53,53,53,53,53,53,
53,53,53,53,53,53,53,53,53,53,53,53,53,53,53,53,53,53,53,53,53,53,53,53,53,53,53,53,53,53,
53,53,53,53,53,53,53,53,53,53,53,53,53,53,53,53,53,53,53,53,53,53,53,53,53,53,53,53,53,53,
53,53,53,53,53,53,53,53,53,53,53,53,53,53,53,53,53,53,53,53,53,53,53,53,53,53,53,53,53,53,
53,53,53,53,53,53,53,53,53,53,53,53,53,53,53,53,53,53,53,53,53,53,53,53,53,53,53,53,53,53,
53,53,53,53,53,53,53,53,53,53,53,53,53,53,53,53,53,53,53,53,53,53,53,53,53,53,53,53,53,53,
53,53,53,53,53,53,53,53,53,53,53,53,53,53,53,53,53,53,53,53,53,53,53,53,53,53,53,53,53,53,
53,53,53,53,53,53,53,53,53,53,53,53,53,53,53,53,53,53,53,53,53,53,53,53,53,53,53,53,53,53,
53,53,53,53,53,53,53,53,53,53,53,53,53,53,53,53,53,53,53,53,53,53,53,53,53,53,53,53,53,53,
53,53,53,53,53,53,53,53,53,53,53,53,53,53,53,53,53,53,53,53,53,53,53,53,53,53,53,53,53,53,
53,53,53,53,53,53,53,53,53,53,53,53,53,53,53,53,53,53,53,53,53,53,53,53,53,53,53,53,53,53,
53,53,53,53,53,53,53,53,53,53,53,53,53,53,53,53,53,53,53,53,53,53,53,53,53,53,53,53,53,53,
53,53,53,53,53,53,53,53,53,53,53,53,53,53,53,53,53,53,53,53,53,53,53,53,53,53,53,53,53,53,
53,53,53,53,53,53,53,53,53,53,53,53,53,53,53,53,53,53,53,53,53,53,53,53,53,53,53,53,53,53,
53,53,53,53,53,53,53,53,53,53,53,53,53,53,53,53,53,53,53,53,53,53,53,53,53,53,53,53,53,53,
53,53,53,53,53,53,53,53,53,53,53,53,53,53,53,53,53,53,53,53,53,53,53,53,53,53,53,53,53,53
</data>
 </layer>
 <layer id="6" name="Map" width="30" height="16">
  <data encoding="csv">
0,0,0,0,0,0,0,0,0,0,0,0,0,0,0,0,0,0,0,0,0,0,0,0,0,0,0,0,0,0,
0,0,0,0,0,0,0,0,0,0,0,0,0,0,0,0,0,0,0,0,0,0,0,0,0,0,0,0,0,0,
0,0,0,0,0,0,0,0,0,0,0,0,0,0,0,0,0,0,0,0,0,0,0,0,0,0,9,10,10,10,
0,0,0,0,0,0,0,0,0,0,0,0,0,0,0,0,0,0,0,0,0,0,0,0,0,0,21,22,22,22,
0,0,0,0,0,0,0,0,0,0,0,0,0,0,0,5,6,6,6,6,7,0,0,0,0,0,21,22,22,22,
0,0,0,0,0,0,0,0,0,0,0,0,0,0,0,17,18,18,18,18,19,0,0,0,0,0,21,22,22,22,
0,0,0,5,6,6,6,6,6,6,7,0,0,0,0,17,18,18,18,18,19,0,0,0,0,0,21,22,22,22,
0,0,0,17,18,18,18,18,18,18,19,0,0,0,0,17,18,18,30,30,31,0,0,0,0,0,21,22,22,22,
0,0,0,17,18,18,18,18,18,18,19,0,0,0,0,17,18,19,5,6,6,6,7,0,0,0,21,22,22,22,
0,0,0,17,18,18,18,18,30,30,31,0,0,0,0,17,18,19,17,18,18,18,19,0,0,0,21,22,22,22,
0,0,0,17,18,18,18,19,5,6,6,6,7,0,0,17,18,19,17,18,18,18,19,0,0,0,21,22,22,22,
0,0,0,17,18,18,18,19,17,18,18,18,19,0,0,17,18,19,17,18,18,18,19,0,0,0,21,22,22,22,
0,0,0,29,30,30,30,31,29,30,30,30,31,0,0,29,30,31,29,30,30,30,31,0,0,0,21,22,22,22,
10,10,10,10,10,10,10,10,10,10,10,10,10,10,10,10,10,10,10,10,10,10,10,10,10,10,22,22,22,22,
22,22,22,22,22,22,22,22,22,22,22,22,22,22,22,22,22,22,22,22,22,22,22,22,22,22,22,22,22,22,
22,22,22,22,22,22,22,22,22,22,22,22,22,22,22,22,22,22,22,22,22,22,22,22,22,22,22,22,22,22
</data>
 </layer>
 <objectgroup id="8" name="Objects">
  <object id="6" gid="121" x="12" y="156" width="12" height="12"/>
  <object id="36" gid="128" x="336" y="24" width="12" height="12"/>
  <object id="37" gid="122" x="288" y="132" width="12" height="12"/>
  <object id="38" gid="122" x="288" y="120" width="12" height="12"/>
  <object id="39" gid="122" x="240" y="84" width="12" height="12"/>
  <object id="40" gid="122" x="240" y="84" width="12" height="12"/>
  <object id="41" gid="122" x="252" y="84" width="12" height="12"/>
  <object id="42" gid="122" x="228" y="84" width="12" height="12"/>
  <object id="43" gid="122" x="288" y="60" width="12" height="12"/>
  <object id="44" gid="122" x="288" y="72" width="12" height="12"/>
  <object id="45" gid="122" x="228" y="36" width="12" height="12"/>
  <object id="46" gid="122" x="216" y="36" width="12" height="12"/>
  <object id="47" gid="122" x="204" y="36" width="12" height="12"/>
 </objectgroup>
</map>
